public/phone.svg

<svg width="24" height="24" viewBox="0 0 24 24" fill="none" xmlns="http://www.w3.org/2000/svg">
<path d="M21.064 4.20229L21.0319 4.18223L16.9728 2.1825L12.5918 8.02392L14.6074 10.7116C14.5471 11.7252 14.1172 12.6815 13.3993 13.3995C12.6813 14.1174 11.725 14.5473 10.7114 14.6076L8.02375 12.5919L2.18237 16.9729L4.16547 20.998L4.18215 21.032L4.20226 21.0641C4.30809 21.2346 4.4558 21.3752 4.63133 21.4725C4.80686 21.5698 5.00437 21.6205 5.20506 21.6199H6.25244C8.2705 21.6199 10.2688 21.2224 12.1333 20.4501C13.9977 19.6778 15.6918 18.5459 17.1188 17.1189C18.5458 15.6919 19.6777 13.9978 20.45 12.1333C21.2223 10.2689 21.6198 8.27058 21.6197 6.25251V5.20509C21.6204 5.00441 21.5697 4.8069 21.4724 4.63137C21.3751 4.45583 21.2345 4.30812 21.064 4.20229ZM20.1197 6.25251C20.1197 13.899 13.8989 20.1199 6.25244 20.1199H5.40494L4.07809 17.4263L8.02403 14.4668L10.2209 16.1144H10.4709C11.9672 16.1128 13.4017 15.5176 14.4598 14.4596C15.5178 13.4015 16.113 11.967 16.1147 10.4707V10.2207L14.467 8.02387L17.4262 4.07817L20.1197 5.40525V6.25251Z" fill="#FFFFFF"/>
</svg>

<svg xmlns="http://www.w3.org/2000/svg" width="24" height="24" fill="none"><path fill="#FFF" d="m21.06 4.2-.03-.02-4.06-2-4.38 5.84 2.02 2.7a4.15 4.15 0 0 1-3.9 3.89l-2.69-2.02-5.84 4.38L4.17 21l.01.03.02.03a1.18 1.18 0 0 0 1 .56h1.05A15.37 15.37 0 0 0 21.62 6.25V5.21a1.17 1.17 0 0 0-.56-1Zm-.94 2.05c0 7.65-6.22 13.87-13.87 13.87H5.4l-1.32-2.7 3.94-2.95 2.2 1.64h.25a5.65 5.65 0 0 0 5.64-5.64v-.25l-1.64-2.2 2.96-3.94 2.69 1.33v.84Z"/></svg>
